X: 092
T: Lady Montgomery's Reel
%R: reel
Z: 2014 John Chambers <jc:trillian.mit.edu>
B: Thompson "Twenty four Country Dances for the Year 1805" p.9 #2
F: http://folkopedia.efdss.org/images/2/2a/Thompson_24_1805.PDF 2014-8-13
M: C|
L: 1/8
K: Bb
|:\
B2BF DEFD | B2BG ABcd | B2BF DEFD | CccB Accd :|
B<Bf2 dBf2 | B<Bf2 defg | B<Bf2 dBf2 | edcB Accd |
B<Bf2 dBf2 | B<B fB cdeg | fdec dBcA | BGFD Cccd |]
% - - - - - - - - - - - - - - - - - - - - - - - - -
%%begintext align
%% Right hands across, left hands back
%% again, lead down the middle up again,
%% right and left at top.
%%endtext
% - - - - - - - - - - - - - - - - - - - - - - - - -
